X:254
T:Steirer (52.)
C:traditionell
A:Salzkammergut
S:MIDI erhalten von Christian Amon. Nach einer kopie im besitz von Johann Stoeckl eines manuscriptes. Stoeckl(zitiert von Amon): "diese sammlung wurde 1935 im hause der familie Hohenlohe-Schillingfuerst gefunden. Sie wurde von einem der beiden brueder Steinegger 1866 verfasst. Die originale sind im Ausseer Kammerhofmuseum".
M:3/4
L:1/8
K:G
V:1
ca Bg Af | GB dg BG | FA df cF | GB dg B2 |\
ca Bg Af | GB dg BG | FA df cF | G4 z2 |*
V:2
ec' db ca | Bd gb dB | Ad fa dc | Bd gb d2 |\
ec' db ca | Bd gb dB | Ad fa dc | B4 z2 |*
